build/Karasa-Jaga/scalable/status/battery-good-charging-symbolic.svg

<svg height="24" viewBox="0 0 24 24" width="24" xmlns="http://www.w3.org/2000/svg"><path d="m10.509766 2.7148438v1.3457031c.977338.261605 1.968019.2949202 2.980468 0v-1.3457031c-.993843.2390723-1.986625.2249557-2.980468 0zm-1.3476566 1.375a1.1342983 1.1342983 0 0 0 -1.1601563 1.1347656v1.9238281c.5604164.0024615.9575699.5638946.7519531 1.0976563l-.7519531 1.8144532v.736328.402344 1.40625l1.1347657.205078v-1.611328-.402344-2.5859375-.4003906-2.5859375c1.9094882.4322112 3.8170752.4593337 5.7265622 0v2.5859375.4003906 2.5859375.402344 2.583984.402344 2.583984.402344 2.583984c-1.945236.566636-3.848785.502626-5.7265622 0v-2.583984-.402344-.5l-1.1347657 1.339844v2.146484a1.1342983 1.1342983 0 0 0 .8417969 1.095703c2.039485.545912 4.177934.622878 6.335938-.005859a1.1342983 1.1342983 0 0 0 .818359-1.089844v-2.583984-.402344-2.583984-.402344-2.583984-.402344-2.5859375-.4003906-2.5859375a1.1342983 1.1342983 0 0 0 -1.400391-1.1035156c-1.732612.4167858-3.450117.3966072-5.2109372-.0019532a1.1342983 1.1342983 0 0 0 -.2246094-.0292968zm-1.1601563 9.3398442v.353515.402344 2.167969l1.1347657-1.339844v-.828125-.402344-.148437z" fill="#bebebe"/><g fill="#95e300"><path d="m9.2789813 8.285759c1.8140127.4106008 3.6280247.4363669 5.4420367 0v2.455945c-1.847974.538303-3.658149.477495-5.4420367 0z"/><path d="m9.2789813 17.245369c1.8140127.410601 3.6280247.436368 5.4420367 0v2.455945c-1.847974.538304-3.658149.477495-5.4420367 0z"/><path d="m9.2792969 14.259766v.585937l.4316406-.511719c-.143989-.027704-.2876516-.041626-.4316406-.074218zm5.4414061 0c-1.359861.327119-2.720217.394096-4.080078.234375l-1.3613281 1.607421v.613282c1.7838881.477496 3.5934321.538304 5.4414061 0z"/><path d="m9.2792969 11.271484v1.564454l1.0156251.18164c.491746.087609.753208.574521.632812 1.011719 1.248952.142069 2.511504.072502 3.792969-.300781v-2.457032c-1.814012.436368-3.627393.410601-5.4414061 0zm0 2.388672v.06836c.2674329.071584.5360342.113776.8046871.166015l.066407-.078125z"/></g><path d="m7.9973446 7.9540735s-5.4566004 7.7098235-4.6955933 7.4923935c.7610073-.217431 2.8265982-.108715 2.8265982-.108715l-2.1534713 5.770875 6.1759378-7.29289-4.2398972-.761007z" fill="#bebebe"/></svg>

<?xml version="1.0" encoding="UTF-8" standalone="no"?>
<!-- Created with Inkscape (http://www.inkscape.org/) -->

<svg
   xmlns:dc="http://purl.org/dc/elements/1.1/"
   xmlns:cc="http://creativecommons.org/ns#"
   xmlns:rdf="http://www.w3.org/1999/02/22-rdf-syntax-ns#"
   xmlns:svg="http://www.w3.org/2000/svg"
   xmlns="http://www.w3.org/2000/svg"
   xmlns:sodipodi="http://sodipodi.sourceforge.net/DTD/sodipodi-0.dtd"
   xmlns:inkscape="http://www.inkscape.org/namespaces/inkscape"
   version="1.1"
   id="svg2"
   width="24"
   height="24"
   viewBox="0 0 24 24"
   sodipodi:docname="battery-good-charging-symbolic.svg"
   inkscape:version="0.92.2 (unknown)"
   inkscape:export-filename="/usr/share/icons/Karasa Jaga/24x24/status/gpm-battery-100-charging.png"
   inkscape:export-xdpi="96"
   inkscape:export-ydpi="96">
  <metadata
     id="metadata8">
    <rdf:RDF>
      <cc:Work
         rdf:about="">
        <dc:format>image/svg+xml</dc:format>
        <dc:type
           rdf:resource="http://purl.org/dc/dcmitype/StillImage" />
        <dc:title></dc:title>
      </cc:Work>
    </rdf:RDF>
  </metadata>
  <defs
     id="defs6" />
  <sodipodi:namedview
     pagecolor="#ffffff"
     bordercolor="#666666"
     borderopacity="1"
     objecttolerance="10"
     gridtolerance="10"
     guidetolerance="10"
     inkscape:pageopacity="0"
     inkscape:pageshadow="2"
     inkscape:window-width="1364"
     inkscape:window-height="704"
     id="namedview4"
     showgrid="false"
     inkscape:zoom="9.875"
     inkscape:cx="12.302724"
     inkscape:cy="14.455971"
     inkscape:window-x="0"
     inkscape:window-y="0"
     inkscape:window-maximized="0"
     inkscape:current-layer="svg2"
     inkscape:snap-global="true"
     showguides="false">
    <inkscape:grid
       type="xygrid"
       id="grid3703" />
  </sodipodi:namedview>
  <path
     style="opacity:1;fill:#bebebe;fill-opacity:1;stroke:none;stroke-width:0.65779859"
     d="M 10.509766 2.7148438 L 10.509766 4.0605469 C 11.487104 4.3221519 12.477785 4.3554671 13.490234 4.0605469 L 13.490234 2.7148438 C 12.496391 2.9539161 11.503609 2.9397995 10.509766 2.7148438 z M 9.1621094 4.0898438 A 1.1342983 1.1342983 0 0 0 8.0019531 5.2246094 L 8.0019531 7.1484375 C 8.5623695 7.150899 8.959523 7.7123321 8.7539062 8.2460938 L 8.0019531 10.060547 L 8.0019531 10.796875 L 8.0019531 11.199219 L 8.0019531 12.605469 L 9.1367188 12.810547 L 9.1367188 11.199219 L 9.1367188 10.796875 L 9.1367188 8.2109375 L 9.1367188 7.8105469 L 9.1367188 5.2246094 C 11.046207 5.6568206 12.953794 5.6839431 14.863281 5.2246094 L 14.863281 7.8105469 L 14.863281 8.2109375 L 14.863281 10.796875 L 14.863281 11.199219 L 14.863281 13.783203 L 14.863281 14.185547 L 14.863281 16.769531 L 14.863281 17.171875 L 14.863281 19.755859 C 12.918045 20.322495 11.014496 20.258485 9.1367188 19.755859 L 9.1367188 17.171875 L 9.1367188 16.769531 L 9.1367188 16.269531 L 8.0019531 17.609375 L 8.0019531 19.755859 A 1.1342983 1.1342983 0 0 0 8.84375 20.851562 C 10.883235 21.397474 13.021684 21.47444 15.179688 20.845703 A 1.1342983 1.1342983 0 0 0 15.998047 19.755859 L 15.998047 17.171875 L 15.998047 16.769531 L 15.998047 14.185547 L 15.998047 13.783203 L 15.998047 11.199219 L 15.998047 10.796875 L 15.998047 8.2109375 L 15.998047 7.8105469 L 15.998047 5.2246094 A 1.1342983 1.1342983 0 0 0 14.597656 4.1210938 C 12.865044 4.5378796 11.147539 4.517701 9.3867188 4.1191406 A 1.1342983 1.1342983 0 0 0 9.1621094 4.0898438 z M 8.0019531 13.429688 L 8.0019531 13.783203 L 8.0019531 14.185547 L 8.0019531 16.353516 L 9.1367188 15.013672 L 9.1367188 14.185547 L 9.1367188 13.783203 L 9.1367188 13.634766 L 8.0019531 13.429688 z "
     id="path9846" />
  <path
     sodipodi:nodetypes="ccccc"
     style="opacity:1;fill:#95e300;fill-opacity:1;stroke:none;stroke-width:0.62490869"
     d="m 9.2789813,8.285759 c 1.8140127,0.4106008 3.6280247,0.4363669 5.4420367,0 v 2.455945 c -1.847974,0.538303 -3.658149,0.477495 -5.4420367,0 z"
     id="path9824"
     inkscape:connector-curvature="0" />
  <path
     inkscape:connector-curvature="0"
     id="rect6102"
     d="m 9.2789813,17.245369 c 1.8140127,0.410601 3.6280247,0.436368 5.4420367,0 v 2.455945 c -1.847974,0.538304 -3.658149,0.477495 -5.4420367,0 z"
     style="opacity:1;fill:#95e300;fill-opacity:1;stroke:none;stroke-width:0.62490869"
     sodipodi:nodetypes="ccccc" />
  <path
     style="opacity:1;fill:#95e300;fill-opacity:1;stroke:none;stroke-width:0.62490869"
     d="M 9.2792969 14.259766 L 9.2792969 14.845703 L 9.7109375 14.333984 C 9.5669485 14.30628 9.4232859 14.292358 9.2792969 14.259766 z M 14.720703 14.259766 C 13.360842 14.586885 12.000486 14.653862 10.640625 14.494141 L 9.2792969 16.101562 L 9.2792969 16.714844 C 11.063185 17.19234 12.872729 17.253148 14.720703 16.714844 L 14.720703 14.259766 z "
     id="path9826" />
  <path
     style="opacity:1;fill:#95e300;fill-opacity:1;stroke:none;stroke-width:0.62490869"
     d="M 9.2792969 11.271484 L 9.2792969 12.835938 L 10.294922 13.017578 C 10.786668 13.105187 11.04813 13.592099 10.927734 14.029297 C 12.176686 14.171366 13.439238 14.101799 14.720703 13.728516 L 14.720703 11.271484 C 12.906691 11.707852 11.09331 11.682085 9.2792969 11.271484 z M 9.2792969 13.660156 L 9.2792969 13.728516 C 9.5467298 13.8001 9.8153311 13.842292 10.083984 13.894531 L 10.150391 13.816406 L 9.2792969 13.660156 z "
     id="path9822" />
  <path
     style="fill:#bebebe;stroke:none;stroke-width:1.07356369px;stroke-linecap:butt;stroke-linejoin:miter;stroke-opacity:1;fill-opacity:1"
     d="m 7.9973446,7.9540735 c 0,0 -5.4566004,7.7098235 -4.6955933,7.4923935 0.7610073,-0.217431 2.8265982,-0.108715 2.8265982,-0.108715 L 3.9748782,21.108627 10.150816,13.815737 5.9109188,13.05473 Z"
     id="path10776"
     inkscape:connector-curvature="0"
     sodipodi:nodetypes="ccccccc" />
</svg>
